public/assets/img/reliable.svg

<svg xmlns="http://www.w3.org/2000/svg" xmlns:xlink="http://www.w3.org/1999/xlink" width="64" height="64" viewBox="0 0 64 64"><path fill="#22B573" d="M49.624 48.379c-6.395 7.215-18.624 12.217-18.624 12.217v-.073c0-.349-11.948-5.242-18.108-12.198-6.393-7.218-5.892-18.095-5.892-18.095v-24.335s2.469-.618 6.695-1.289c4.538-.721 10.989-1.545 17.691-1.7 12.942.308 23.614 3.04 23.614 3.04v24.334c0 .001 1.068 10.878-5.376 18.099z"/><defs><path id="a" d="M31-1h33v66h-33z"/></defs><clipPath id="b"><use xlink:href="#a" overflow="visible"/></clipPath><path clip-path="url(#b)" fill="#006837" d="M49.624 48.379c-6.395 7.215-18.624 12.217-18.624 12.217v-.073c0-.349-11.948-5.242-18.108-12.198-6.393-7.218-5.892-18.095-5.892-18.095v-24.335s2.469-.618 6.695-1.289c4.538-.721 10.989-1.545 17.691-1.7 12.942.308 23.614 3.04 23.614 3.04v24.334c0 .001 1.068 10.878-5.376 18.099z"/><path fill="#FFD800" d="M47.937 46.65c-5.73 6.465-16.937 10.947-16.937 10.947v-.067c0-.312-10.955-4.696-16.475-10.929-5.728-6.466-5.525-16.214-5.525-16.214v-21.804s2.428-.554 6.216-1.155c4.064-.646 10.233-1.385 16.238-1.524 11.597.276 21.546 2.724 21.546 2.724v21.805s.71 9.748-5.063 16.217zm3.063-16.086v-19.624s-9.185-2.203-19.62-2.453c-5.405.125-10.813.79-14.472 1.372-3.41.541-5.908 1.04-5.908 1.04v19.624s-.082 8.771 5.073 14.593c5.033 5.683 14.927 9.652 14.927 9.837v.058s10.188-4.032 15.342-9.851c5.197-5.823 4.658-14.596 4.658-14.596z"/><defs><path id="c" d="M31-1h33v66h-33z"/></defs><clipPath id="d"><use xlink:href="#c" overflow="visible"/></clipPath><path clip-path="url(#d)" fill="#DCA700" d="M47.937 46.65c-5.73 6.465-16.937 10.947-16.937 10.947v-.067c0-.312-10.955-4.696-16.475-10.929-5.728-6.466-5.525-16.214-5.525-16.214v-21.804s2.428-.554 6.216-1.155c4.064-.646 10.233-1.385 16.238-1.524 11.597.276 21.546 2.724 21.546 2.724v21.805s.71 9.748-5.063 16.217zm3.063-16.086v-19.624s-9.185-2.203-19.62-2.453c-5.405.125-10.813.79-14.472 1.372-3.41.541-5.908 1.04-5.908 1.04v19.624s-.082 8.771 5.073 14.593c5.033 5.683 14.927 9.652 14.927 9.837v.058s10.188-4.032 15.342-9.851c5.197-5.823 4.658-14.596 4.658-14.596z"/></svg>

<svg xmlns="http://www.w3.org/2000/svg" xmlns:xlink="http://www.w3.org/1999/xlink" width="64" height="64" viewBox="0 0 64 64"><path fill="#22B573" d="M49.624 48.38C43.23 55.593 31 60.595 31 60.595v-.073c0-.35-11.948-5.242-18.108-12.198C6.5 41.107 7 30.23 7 30.23V5.895s2.47-.618 6.695-1.29c4.538-.72 10.99-1.544 17.69-1.7C44.33 3.216 55 5.946 55 5.946V30.28s1.068 10.878-5.376 18.1z"/><defs><path id="a" d="M31-1h33v66H31z"/></defs><clipPath id="b"><use xlink:href="#a" overflow="visible"/></clipPath><path clip-path="url(#b)" fill="#006837" d="M49.624 48.38C43.23 55.593 31 60.595 31 60.595v-.073c0-.35-11.948-5.242-18.108-12.198C6.5 41.107 7 30.23 7 30.23V5.895s2.47-.618 6.695-1.29c4.538-.72 10.99-1.544 17.69-1.7C44.33 3.216 55 5.946 55 5.946V30.28s1.068 10.878-5.376 18.1z"/><path fill="#FFD800" d="M47.937 46.65C42.207 53.115 31 57.597 31 57.597v-.067c0-.312-10.955-4.696-16.475-10.93C8.797 40.136 9 30.388 9 30.388V8.583s2.428-.554 6.216-1.155c4.064-.646 10.233-1.385 16.238-1.524C43.05 6.18 53 8.628 53 8.628v21.805s.71 9.748-5.063 16.217zM51 30.564V10.94s-9.185-2.203-19.62-2.453c-5.405.125-10.813.79-14.472 1.372C13.498 10.4 11 10.9 11 10.9v19.623s-.082 8.77 5.073 14.593C21.106 50.8 31 54.768 31 54.953v.058s10.188-4.03 15.342-9.85C51.54 39.337 51 30.564 51 30.564z"/><defs><path id="c" d="M31-1h33v66H31z"/></defs><clipPath id="d"><use xlink:href="#c" overflow="visible"/></clipPath><path clip-path="url(#d)" fill="#DCA700" d="M47.937 46.65C42.207 53.115 31 57.597 31 57.597v-.067c0-.312-10.955-4.696-16.475-10.93C8.797 40.136 9 30.388 9 30.388V8.583s2.428-.554 6.216-1.155c4.064-.646 10.233-1.385 16.238-1.524C43.05 6.18 53 8.628 53 8.628v21.805s.71 9.748-5.063 16.217zM51 30.564V10.94s-9.185-2.203-19.62-2.453c-5.405.125-10.813.79-14.472 1.372C13.498 10.4 11 10.9 11 10.9v19.623s-.082 8.77 5.073 14.593C21.106 50.8 31 54.768 31 54.953v.058s10.188-4.03 15.342-9.85C51.54 39.337 51 30.564 51 30.564z"/></svg>
